src/epub/images/titlepage.svg

<?xml version="1.0" encoding="utf-8"?>
<svg xmlns="http://www.w3.org/2000/svg" xmlns:svg="http://www.w3.org/2000/svg" version="1.1" viewBox="0 0 1400 340">
	<title>The titlepage for the Standard Ebooks edition of Emma, by Jane Austen</title>
	<g>
		<path d="m 590.04824,52.807016 -44.16374,0 0,77.192984 44.16374,0 0,-15.4386 -26.5731,0 0,-15.532161 25.4503,0 0,-15.438597 -25.4503,0 0,-15.345029 26.5731,0 0,-15.438597 z"/>
		<path d="m 668.97368,130 17.59065,0 -6.92398,-77.192984 -18.71345,0 -17.12281,44.538013 -17.1228,-44.538013 -18.71345,0 L 601.04386,130 l 17.59064,0 3.64913,-45.754387 0.46783,0 15.81287,45.286547 10.47953,0 15.81287,-45.286547 0.46783,0 L 668.97368,130 Z"/>
		<path d="m 762.42398,130 17.59064,0 -6.92398,-77.192984 -18.71345,0 -17.12281,44.538013 -17.1228,-44.538013 -18.71345,0 L 694.49415,130 l 17.59064,0 3.64913,-45.754387 0.46783,0 15.81287,45.286547 10.47953,0 15.81287,-45.286547 0.46783,0 L 762.42398,130 Z"/>
		<path d="m 831.26609,52.807016 -16.2807,0 L 783.82749,130 l 18.90059,0 5.7076,-15.4386 29.38012,0 5.7076,15.4386 18.90059,0 -31.1579,-77.192984 z m 0.5614,46.31579 -17.40351,0 8.60819,-22.45614 0.18714,0 8.60818,22.45614 z"/>
	</g>
	<g>
		<path d="m 456.52796,232.10526 -13.19298,0 0,38.17544 c 0,5.82456 -2.87719,8.14035 -6.66667,8.14035 -3.36842,0 -7.50877,-3.92982 -7.50877,-3.92982 l -4.21052,11.01754 c 0,0 5.26315,5.54386 13.54386,5.54386 11.57894,0 18.03508,-6.03509 18.03508,-17.40351 l 0,-41.54386 z"/>
		<path d="m 498.63323,232.10526 -12.21053,0 L 463.05428,290 l 14.17544,0 4.2807,-11.57895 22.03509,0 4.2807,11.57895 14.17544,0 -23.36842,-57.89474 z m 0.42105,34.73685 -13.05263,0 6.45614,-16.84211 0.14035,0 6.45614,16.84211 z"/>
		<path d="m 542.38432,254.07018 0.14035,0 23.01755,35.92982 13.19298,0 0,-57.89474 -13.19298,0 0,35.92983 -0.14035,0 -23.01755,-35.92983 -13.19298,0 0,57.89474 13.19298,0 0,-35.92982 z"/>
		<path d="m 625.29113,232.10526 -33.12281,0 0,57.89474 33.12281,0 0,-11.57895 -19.92982,0 0,-11.64912 19.08772,0 0,-11.57895 -19.08772,0 0,-11.50877 19.92982,0 0,-11.57895 z"/>
		<path d="m 691.46766,232.10526 -12.21053,0 L 655.88871,290 l 14.17544,0 4.2807,-11.57895 22.03509,0 4.2807,11.57895 14.17544,0 -23.36842,-57.89474 z m 0.42105,34.73685 -13.05263,0 6.45614,-16.84211 0.14035,0 6.45614,16.84211 z"/>
		<path d="m 766.517,232.10526 -13.19298,0 0,33.47369 c 0,9.68421 -2.94737,12.49123 -9.40351,12.49123 -6.45614,0 -9.40351,-2.80702 -9.40351,-12.49123 l 0,-33.47369 -13.19298,0 0,37.33334 c 0,14.31579 7.85965,21.61403 22.59649,21.61403 14.73684,0 22.59649,-7.29824 22.59649,-21.61403 l 0,-37.33334 z"/>
		<path d="m 799.2089,231.05263 c -9.33333,0 -18.87719,6.8772 -18.87719,17.68421 0,6.03509 4.07017,11.4386 11.01754,14.8772 6.8772,3.43859 13.05263,5.33333 13.05263,9.54385 0,5.40351 -5.47368,5.68422 -8.35087,5.68422 -6.45614,0 -14.17544,-6.52632 -14.17544,-6.52632 l -6.59649,11.08772 c 0,0 8.21052,7.64912 21.75438,7.64912 11.29825,0 21.82456,-4.8421 21.82456,-18.66666 0,-7.57895 -7.08771,-13.05264 -13.54385,-15.78948 -6.5965,-2.80702 -12.07018,-5.12281 -12.07018,-8.35088 0,-3.15789 2.38596,-5.19298 6.87719,-5.19298 5.96491,0 11.7193,4 11.7193,4 l 5.33333,-10.52631 c 0,0 -7.43859,-5.47369 -17.96491,-5.47369 z"/>
		<path d="m 822.94901,243.68421 13.75439,0 0,46.31579 13.19298,0 0,-46.31579 13.75438,0 0,-11.57895 -40.70175,0 0,11.57895 z"/>
		<path d="m 906.52468,232.10526 -33.12281,0 0,57.89474 33.12281,0 0,-11.57895 -19.92982,0 0,-11.64912 19.08772,0 0,-11.57895 -19.08772,0 0,-11.50877 19.92982,0 0,-11.57895 z"/>
		<path d="m 932.3021,254.07018 0.14035,0 L 955.46,290 l 13.19298,0 0,-57.89474 -13.19298,0 0,35.92983 -0.14035,0 -23.01755,-35.92983 -13.19298,0 0,57.89474 13.19298,0 0,-35.92982 z"/>
	</g>
</svg>

<?xml version="1.0" encoding="utf-8"?>
<svg xmlns="http://www.w3.org/2000/svg" xmlns:svg="http://www.w3.org/2000/svg" version="1.1" viewBox="0 0 1400 340">
	<title>The titlepage for the Standard Ebooks edition of Emma, by Jane Austen</title>
	<g aria-label="EMMA">
		<path d="M 590.04824,52.807016 H 545.8845 V 130 h 44.16374 v -15.4386 h -26.5731 V 99.029239 h 25.4503 V 83.590642 h -25.4503 V 68.245613 h 26.5731 z"/>
		<path d="m 668.97368,130 h 17.59065 L 679.64035,52.807016 H 660.9269 L 643.80409,97.345029 626.68129,52.807016 H 607.96784 L 601.04386,130 h 17.59064 l 3.64913,-45.754387 h 0.46783 l 15.81287,45.286547 h 10.47953 l 15.81287,-45.286547 h 0.46783 z"/>
		<path d="m 762.42398,130 h 17.59064 L 773.09064,52.807016 H 754.37719 L 737.25438,97.345029 720.13158,52.807016 H 701.41813 L 694.49415,130 h 17.59064 l 3.64913,-45.754387 h 0.46783 l 15.81287,45.286547 h 10.47953 l 15.81287,-45.286547 h 0.46783 z"/>
		<path d="m 831.26609,52.807016 h -16.2807 L 783.82749,130 h 18.90059 l 5.7076,-15.4386 H 837.8158 L 843.5234,130 h 18.90059 z m 0.5614,46.31579 h -17.40351 l 8.60819,-22.45614 h 0.18714 z"/>
	</g>
	<g aria-label="JANE AUSTEN">
		<path d="m 456.52796,232.10526 h -13.19298 v 38.17544 c 0,5.82456 -2.87719,8.14035 -6.66667,8.14035 -3.36842,0 -7.50877,-3.92982 -7.50877,-3.92982 l -4.21052,11.01754 c 0,0 5.26315,5.54386 13.54386,5.54386 11.57894,0 18.03508,-6.03509 18.03508,-17.40351 z"/>
		<path d="M 498.63323,232.10526 H 486.4227 L 463.05428,290 h 14.17544 l 4.2807,-11.57895 h 22.03509 L 507.82621,290 h 14.17544 z m 0.42105,34.73685 H 486.00165 L 492.45779,250 h 0.14035 z"/>
		<path d="m 542.38432,254.07018 h 0.14035 L 565.54222,290 h 13.19298 v -57.89474 h -13.19298 v 35.92983 h -0.14035 L 542.38432,232.10526 H 529.19134 V 290 h 13.19298 z"/>
		<path d="M 625.29113,232.10526 H 592.16832 V 290 h 33.12281 v -11.57895 h -19.92982 v -11.64912 h 19.08772 v -11.57895 h -19.08772 v -11.50877 h 19.92982 z"/>
		<path d="M 691.46766,232.10526 H 679.25713 L 655.88871,290 h 14.17544 l 4.2807,-11.57895 h 22.03509 L 700.66064,290 h 14.17544 z m 0.42105,34.73685 H 678.83608 L 685.29222,250 h 0.14035 z"/>
		<path d="m 766.517,232.10526 h -13.19298 v 33.47369 c 0,9.68421 -2.94737,12.49123 -9.40351,12.49123 -6.45614,0 -9.40351,-2.80702 -9.40351,-12.49123 v -33.47369 h -13.19298 v 37.33334 c 0,14.31579 7.85965,21.61403 22.59649,21.61403 14.73684,0 22.59649,-7.29824 22.59649,-21.61403 z"/>
		<path d="m 799.2089,231.05263 c -9.33333,0 -18.87719,6.8772 -18.87719,17.68421 0,6.03509 4.07017,11.4386 11.01754,14.8772 6.8772,3.43859 13.05263,5.33333 13.05263,9.54385 0,5.40351 -5.47368,5.68422 -8.35087,5.68422 -6.45614,0 -14.17544,-6.52632 -14.17544,-6.52632 l -6.59649,11.08772 c 0,0 8.21052,7.64912 21.75438,7.64912 11.29825,0 21.82456,-4.8421 21.82456,-18.66666 0,-7.57895 -7.08771,-13.05264 -13.54385,-15.78948 -6.5965,-2.80702 -12.07018,-5.12281 -12.07018,-8.35088 0,-3.15789 2.38596,-5.19298 6.87719,-5.19298 5.96491,0 11.7193,4 11.7193,4 l 5.33333,-10.52631 c 0,0 -7.43859,-5.47369 -17.96491,-5.47369 z"/>
		<path d="M 822.94901,243.68421 H 836.7034 V 290 h 13.19298 v -46.31579 h 13.75438 v -11.57895 h -40.70175 z"/>
		<path d="M 906.52468,232.10526 H 873.40187 V 290 h 33.12281 v -11.57895 h -19.92982 v -11.64912 h 19.08772 v -11.57895 h -19.08772 v -11.50877 h 19.92982 z"/>
		<path d="m 932.3021,254.07018 h 0.14035 L 955.46,290 h 13.19298 V 232.10526 H 955.46 v 35.92983 h -0.14035 L 932.3021,232.10526 H 919.10912 V 290 h 13.19298 z"/>
	</g>
</svg>
